!!! OTL: Berkowitz119
!!! Chapter: 1
!!! Section: I
!!! Page: 28
!!! Mode: 
!!! Encoder: DJB
**kern
*staff1
*I"Piano
=1-
*clefG2
*k[f#c#]
*D:
*M6/8
8d/L
8a/
8a/J
8a/L
8g/
8f#/J
=2
8e/L
8f#/
8g/J
8f#/
4d/
=3
8d/L
8a/
8a/J
8r
8b/L
8a/J
=4
8g/L
8f#/
8g/J
4.a/
=5
8b\L
8dd\J
8r
8b\L
8dd\J
8r
=6
8b\L
8dd\
8dd\J
8a\L
8dd\
8dd\J
=7
8b\L
8dd\
8dd\J
8a/L
8g/
8f#/J
=8
!!linebreak:original
8g/L
8f#/
8e/J
4.d/
==
*-
